X: 36
T:Scottish Caddie
% Nottingham Music Database
S:Mick Peat
P:/f2AABA last time through/fP
M:6/8
K:C
B|"Am"ABc cBA|aAA ABc|"Am"ABc "D"cBA|"G"gGG GAB|
"Am"ABc cBA|aAA ABc|"Am"ABc "G"cBA|1"Am"A3 "E"B3:|2"Am"A3 "G"B3:|
"C"cde edc|c'cc cde|"C"cde edc|"Bb"_bfd dfb|
"C"cde edc|c'cc cde|"C"cde "Bb"edc|1"C"c3 c3:|2"C"c3 "E"B3:|<end>
<start>
